!!!!SEGMENT:Sodenotsuyu.krn
!!!OTL: 袖の露（箏曲）
!!!OPR:Eiga Banso Kyokusyu,jidai-geki,kouhen
!!!YOY:1928
!!!ONB:LoveScene
**kern
*clefG2
*k[f#]
*G:
*M2/4
=1
2f#
=2
2f#
=3
4b
[4f#
=4
4f#]
8eL
8f#J
=5
4.f#
8e
=6
2c
=7
2B
=8
4B
4r
=9
2f#
=10
2e
=11
*^
4f#	4ryy
4rb	8ryy
.	(8e
=12	=12
2rb	2f#)
*v	*v
=13
2a
=14
4b
8aL
8bJ
=15
4B
4r
=16
2cc
=17
2b
=18
4cc
[4b
=19
4b]
4e
=20
[2f#
=21
4f#']
4bb
=22
4gg
4r
=23
8ff#L
8eeJ
8.f#L
16ggJk
=24
4bb
4gg
=25
4ee
4ee
=26
4ee
4r
=27
2ee
=28
2ee
=29
4ee
4ee
=30
2ee
=31
2ee
=32
4ffn
[4ee
=33
4ee]
4dd
=34
(8.eeL
16ccJk)
4b
=35
4cc
4b
=36
4r
4ee
=37
4cc
4b
=38
2a
=39
2b
=40
4r
4cc
=41
2cc
=42
8ff#L
8eeJ
4cc
=43
4..b
16g
=44
4f#
4r
=45
4..cc#X
(16b
=46
2g)
=47
[2f#
=48
4f#]
4r
=49
4a
[4a
=50
4a]
4b
=51
2cc
=52
4ee
4cc
=53
4ee
4ff#
=54
2gg
=55
4..ff#
(16ee
=56
2cc)
=57
4b
[4a
=58
4a]
8eeL
8ff#J
=59
2cc
=60
4cc
[4b
=61
4b]
4e
=62
4f#
4c
=63
4e
4f#
=64
8r
8ee
4cc
=65
4..b
(16g
=66
4f#)
4r
=:|!
*-
!!!ENC: Yukiko Yoden
!!!END: 2023/06/11
